X: 31594
T: Palmer's Gate
R: reel
M: 4/4
K: Eminor
|:B ~E3 GABA|AGBG AGFA|G2 GA BAGA|BedB A2 GA|
B ~E3 GABA|AGBA GEDE|GABe edBA|AGED E2 GA:|
|:B ~e3 Beef|g2 fe edBA|G2 ~G2 dGBA|GAB/c/d edBA|
Beed ~e3 f|g2 fe edBA|GABe edBA|AGED E2 GA:|

